picto/jetty-left-framed.svg

<svg class="color-immutable" width="30" height="30" viewBox="0 0 30 30" fill="none" xmlns="http://www.w3.org/2000/svg"><path d="M30 0H0V30H30V0Z" fill="#2D327D"/><path d="M25.5 3C26.325 3 27 3.675 27 4.5V25.5C27 26.325 26.325 27 25.5 27H4.5C3.675 27 3 26.325 3 25.5V4.5C3 3.675 3.675 3 4.5 3H25.5ZM25.5 2.625H4.5C3.46613 2.625 2.625 3.46613 2.625 4.5V25.5C2.625 26.5339 3.46613 27.375 4.5 27.375H25.5C26.5339 27.375 27.375 26.5339 27.375 25.5V4.5C27.375 3.46613 26.5339 2.625 25.5 2.625Z" fill="white"/><path d="M23.2504 11.2501H24V10.5H18.3382C18.1311 10.5 17.963 10.6681 17.963 10.8751C17.963 11.0821 18.1311 11.2501 18.3382 11.2501H18.8631L18.4878 13.5007H13.8756V15.7502H15.1882L14.813 17.9998H5.77625L8.02625 22.2668L9.63237 21.928C9.91925 21.8908 10.2091 21.8685 10.4999 21.862C10.7907 21.8685 11.0805 21.8908 11.3675 21.928L13.8878 22.4599C14.2537 22.536 14.6263 22.5742 14.9997 22.5751C15.3731 22.5742 15.7456 22.5361 16.1107 22.4599L18.6309 21.928C18.9198 21.8908 19.2096 21.8685 19.4994 21.862C19.7892 21.8685 20.0791 21.8908 20.3679 21.928L22.8873 22.4599C23.2542 22.536 23.6267 22.5742 24 22.5751V17.9999H23.2504C23.0433 17.9999 22.8751 17.8317 22.8751 17.6248V16.1245C22.8751 15.9183 23.0433 15.7504 23.2504 15.7504H24V13.5008H23.2504C23.0433 13.5008 22.8751 13.3318 22.8751 13.1249V11.6253C22.8751 11.4182 23.0433 11.2501 23.2504 11.2501ZM18.525 17.6247C18.525 17.8309 18.3568 17.9998 18.1506 17.9998H15.9397C15.7326 17.9998 15.5645 17.8309 15.5645 17.6247C15.5645 17.6043 15.5673 17.5839 15.5701 17.5635L15.82 16.0631C15.8506 15.8821 16.0068 15.7503 16.1898 15.7503H18.1507C18.3569 15.7503 18.5251 15.9182 18.5251 16.1244V17.6247H18.525ZM22.2008 17.6247C22.2008 17.8309 22.0326 17.9998 21.8256 17.9998H19.5756C19.3685 17.9998 19.2003 17.8309 19.2003 17.6247V16.1244C19.2003 15.9182 19.3685 15.7503 19.5756 15.7503H21.8256C22.0326 15.7503 22.2008 15.9182 22.2008 16.1244V17.6247ZM22.2008 13.1248C22.2008 13.3317 22.0326 13.5007 21.8256 13.5007H19.6146C19.4084 13.5007 19.2403 13.3318 19.2403 13.1248C19.2403 13.1042 19.2412 13.0839 19.245 13.0625L19.4948 11.5631C19.5255 11.3831 19.6815 11.2502 19.8654 11.2502H21.8256C22.0326 11.2502 22.2008 11.4183 22.2008 11.6252V13.1248Z" fill="white"/><path d="M20.2497 22.6318C19.9998 22.6002 19.7498 22.5817 19.4991 22.576C19.2483 22.5817 18.9975 22.6002 18.7494 22.6318L16.2569 23.1573C15.8426 23.2446 15.4217 23.2873 14.999 23.2882C14.5763 23.2874 14.1555 23.2447 13.7412 23.1573L11.2496 22.6318C10.9998 22.6002 10.7497 22.5817 10.499 22.576C10.2481 22.5817 9.9982 22.6002 9.74928 22.6318L7.2568 23.1573C6.8434 23.2446 6.4225 23.2873 5.99988 23.2882V24.0005C6.4708 23.9996 6.9409 23.9522 7.40268 23.8556L9.86635 23.3356C10.0763 23.3106 10.2871 23.2948 10.499 23.2882C10.7107 23.2948 10.9217 23.3106 11.1325 23.3356L13.5953 23.8556C14.0571 23.9522 14.527 23.9996 14.999 24.0005C15.4709 23.9996 15.9411 23.9522 16.4028 23.8556L18.8664 23.3356C19.0755 23.3106 19.2872 23.2948 19.4991 23.2882C19.7109 23.2948 19.9218 23.3106 20.1327 23.3356L22.5954 23.8556C23.058 23.9522 23.5281 23.9996 24 24.0005V23.2882C23.5774 23.2874 23.1556 23.2447 22.7412 23.1573L20.2497 22.6318Z" fill="white"/></svg>

<svg class="color-immutable" width="30" height="30" viewBox="0 0 30 30" fill="none" xmlns="http://www.w3.org/2000/svg"><g clip-path="url(#a)"><path d="M30 0H0v30h30V0Z" fill="#2D327D"/><path d="M25.5 3c.825 0 1.5.675 1.5 1.5v21c0 .825-.675 1.5-1.5 1.5h-21c-.825 0-1.5-.675-1.5-1.5v-21C3 3.675 3.675 3 4.5 3h21Zm0-.375h-21A1.877 1.877 0 0 0 2.625 4.5v21c0 1.034.841 1.875 1.875 1.875h21a1.877 1.877 0 0 0 1.875-1.875v-21A1.877 1.877 0 0 0 25.5 2.625Z" fill="#fff"/><path d="M23.25 11.25H24v-.75h-5.662a.375.375 0 0 0 0 .75h.525l-.375 2.25h-4.612v2.25h1.312L14.813 18H5.776l2.25 4.267 1.606-.339a8.17 8.17 0 0 1 .868-.066c.29.007.58.029.867.066l2.52.532c.367.076.74.114 1.113.115.373 0 .746-.039 1.11-.115l2.52-.532c.29-.037.58-.06.87-.066.29.007.58.029.868.066l2.52.532c.366.076.739.114 1.112.115V18h-.75a.375.375 0 0 1-.375-.375v-1.5c0-.207.168-.375.375-.375H24V13.5h-.75a.376.376 0 0 1-.375-.375v-1.5c0-.207.168-.375.375-.375Zm-4.725 6.375a.376.376 0 0 1-.374.375H15.94a.376.376 0 0 1-.37-.436l.25-1.5a.375.375 0 0 1 .37-.314h1.96c.207 0 .375.168.375.374v1.5Zm3.676 0a.376.376 0 0 1-.375.375h-2.25a.376.376 0 0 1-.376-.375v-1.5c0-.207.169-.375.376-.375h2.25c.207 0 .375.168.375.374v1.5Zm0-4.5a.376.376 0 0 1-.375.376h-2.211a.376.376 0 0 1-.37-.438l.25-1.5a.376.376 0 0 1 .37-.313h1.96c.208 0 .376.168.376.375v1.5ZM20.25 22.632a7.3 7.3 0 0 0-.75-.056c-.252.006-.503.024-.75.056l-2.493.525a6.158 6.158 0 0 1-2.516 0l-2.491-.525c-.25-.032-.5-.05-.751-.056-.25.006-.5.024-.75.056l-2.492.525c-.414.088-.834.13-1.257.131V24c.47 0 .94-.048 1.403-.144l2.463-.52c.21-.025.421-.041.633-.048.212.007.423.023.633.048l2.463.52a6.915 6.915 0 0 0 2.808 0l2.463-.52c.21-.025.421-.041.633-.048.212.007.423.023.634.048l2.462.52A6.93 6.93 0 0 0 24 24v-.712c-.423 0-.844-.043-1.259-.13l-2.491-.526Z" fill="#fff"/></g><defs><clipPath id="a"><path fill="#fff" d="M0 0h30v30H0z"/></clipPath></defs></svg>
